X: 576
T: Logan Water   #2
T: uisge logain.
R: air
%S: s:2 b:16(8+8)
B: O'Neill's 1850 #576
Z: J.B. Walsh walsh@math.ubc.ca
Q: "Slow and plaintive."
N: Compacted by using labels and play order [JC]
P: Play AB CB
M: C
L: 1/8
K: Gm
"^A"[| GA  | B2 AG G3 B | FDCD F3A | {c}B2 AG G3 B | ^FG Bc {Bc}d3 |]
"^B"[|  d  | {d}e2 {e}dc {e}d2 cB | {d}cB AG F3 B | G>ABc d>edc | B2 TA2 {GA}G2 H|]
"^C"[| d^f | g2 dB G3 B | F<D CD F3 ^f | g2 G2 G2=FG/A/ | B>ABc "^->B"d3 |]
